X:5772
T:Gan Ainm
R:strathspey
N:More versions in CRE 5
D:concertina recital Milltown 1992
Z:Adrian Scahill
M:4/4
L:1/8
K:G
G2GB AGEG|cBce dBg2|BGBd cA (3BAG|EAFA GB (3AFD|\
G2GB AGEG|cBce dBg2|(3BAG Bd cA (3BAG|(3EGA FA G4||\
dgBg dgBd|gb (3agf e3f|(3gbb (3agf (3efg (3dcB|(3cee (3dBd (3gdB (3cBA|\
dgBg dgBd|gb (3agf e3f|(3gbb (3agf (3efg (3dcB|(3cef (3dBd (3gdB (3cBA||


